X: 1
T: Mrs Marriott
M: 6/8
L: 1/8
R: jig
K: Amaj
|: EAA ABc | BAc Ffe | cAA eAA | e6 | fga gec | fdB ecA |
dBG FGA | B3 B2 c | BEE EFA | BAc Ffe | cAA eAA | f3 efa |
fBB Bce | cAE FGA | feA GFG |1 A3 A2 A :|2 A3 efg ||
|: agf efa | fdB ecA | cea dfa | egb b3 | d'be c'ae | bge aec |
afe dBe | f3 ef=g | fed Bd=g | Ade fga | eag aec | dBG EFG |
ABc FGA | Bcd efg | aec dBG |1 A3 efg :|2 A6 ||
